Adwaita++/actions/symbolic/calendar-go-today-symbolic.svg

<svg height="16" width="16" xmlns="http://www.w3.org/2000/svg">
  <g fill="#474747">
    <path d="m2 1s-1 0-1 1v5h2v-1h.8l2.41-2.414 2.42 2.414h4.37v7h-5.34l-1.44 1.459-1.46-1.459h-1.76v-2h-2v3s0 1 1 1h12c1 0 1-1 1-1v-12s0-1-1-1z"/>
    <path d="m6.21 5-1.38 1.386 1.63 1.635-6.46-.021v2l6.46.021-1.63 1.634 1.38 1.386 4-4.041z"/>
  </g>
</svg>

<svg xmlns="http://www.w3.org/2000/svg" width="16" height="16" version="1.1">
 <path style="fill:#474747" d="M 2,1 C 2,1 1,1 1,2 V 7 H 3 V 6 H 3.8 L 6.21,3.586 8.63,6 H 13 V 13 H 7.66 L 6.22,14.459 4.76,13 H 3 V 11 H 1 V 14 C 1,14 1,15 2,15 H 14 C 15,15 15,14 15,14 V 2 C 15,2 15,1 14,1 Z"/>
 <path style="fill:#474747" d="M 6.21,5 4.83,6.386 6.46,8.021 0,8 V 10 L 6.46,10.021 4.83,11.655 6.21,13.041 10.21,9 Z"/>
</svg>
